X: 22
T: Acemaşîrân Sazsemâîsi
C: Şerafettin Şeref Çakar
O: Turkey
F: http://compmusic.upf.edu/node/140
N: acemasiran--sazsemaisi--aksaksemai----serafettin_seref_cakar
N: makam= acemasiran
N: form= sazsemaisi
N: usul= aksaksemai = 10/8
M: 10/8
L: 1/16
K: C _B   
Q: 1/4=120
%%MIDI tuningsystem comma53
f4 e2g3fa2 gfe4d2  | c4 dBA3GAG FEF4z2  | \
w:  1. HANE  |   | 
FGAB cde3/2d/ efg3/2f/ gab4c'2  | 
w:   | 
.d'2.c'2 .b2a3gag fef4z2  | efef gae4.a2 .f2.e4z2  | 
w:   |  MÜLÂZİME  | 
dede fgd4.f2 .d2.c4z2  | ABAB cdce dfeg fagf edcB  | 
w:   |   | 
A3/2G/Ad cBAB AGAG FEF4z2  | efef gae4.a2 .f2.e4z2  | 
w:   |  MÜLÂZİME  | 
dede fgd4.f2 .d2.c4z2  | ABAB cdce dfeg fagf edcB  | 
w:   |   | 
A3/2G/Ad cBAB AGAG FEF4z2  | c4 _3/4d2e3fg2 _7/8a2g2 f2e2  | 
w:   |  2. HANE  | 
_7/8a2g2 f2ef efag fef4z2  | g4 a2ab agfe d^cd4e2  | 
w:   |   | 
f3e d2a3g_7/8ag fef4z2  | efef gae4.a2 .f2.e4z2  | 
w:   |  MÜLÂZİME  | 
dede fgd4.f2 .d2.c4z2  | ABAB cdce dfeg fagf edcB  | 
w:   |   | 
A3/2G/Ad cBAB AGAG FEF4z2  | efef gae4.a2 .f2.e4z2  | 
w:   |  MÜLÂZİME  | 
dede fgd4.f2 .d2.c4z2  | ABAB cdce dfeg fagf edcB  | 
w:   |   | 
A3/2G/Ad cBAB AGAG FEF4z2  | g4 a2a3bc'2 baa4z2  | 
w:   |  3. HANE  | 
bagf edc3d_ed cBA4z2  | c4 def3ef3/2e/ fgag fede  | 
w:   |   | 
c4 def3/2e/ fgag fef4z2  | efef gae4.a2 .f2.e4z2  | 
w:   |  MÜLÂZİME  | 
dede fgd4.f2 .d2.c4z2  | ABAB cdce dfeg fagf edcB  | 
w:   |   | 
A3/2G/Ad cBAB AGAG FEF4z2  | efef gae4.a2 .f2.e4z2  | 
w:   |  MÜLÂZİME  | 
dede fgd4.f2 .d2.c4z2  | ABAB cdce dfeg fagf edcB  | 
w:   |   | 
A3/2G/Ad cBAB AGAG FEF4z2  | z12  | a12  | f12  | \
w:   |  |  4. HANE  |   | 
e4g6e2  | 
w:   | 
d12  | f12  | d12  | c4d6B2  | A12  | A8B4  | c12  | \
w:   |   |   |   |   |   |   | 
d4B4A4  | G12  | A4G4F4  | G4F4E4  | F24  | 
w:   |   |   |   |   | 
a12  | f12  | e4g6e2  | d12  | f12  | d12  | c4d6B2  | A12  | \
w:   |   |   |   |   |   |   |   | 
A8B4  | c12  | d4B4A4  | G12  | A4G4F4  | 
w:   |   |   |   |   | 
G4F4E4  | F24  | c8=B4  | c4d4e4  | f8e4  | f12  | \
w:   |   |   |   |   |   | 
g8^9/8f4  | g4a4=b4  | c'8=b4  | c'12  | d'4c'4b4  | 
w:   |   |   |   |   | 
a4g4f4  | e4.f4.d4  | c12  | d4c4B4  | A4G4F4  | \
w:   |   |   |   |   | 
G4F4E4  | F12  | c8=B4  | c4d4e4  | 
w:   |   |   |   | 
f8e4  | f12  | g8^9/8f4  | g4a4=b4  | c'8=b4  | c'12  | \
w:   |   |   |   |   |   | 
d'4c'4b4  | a4g4f4  | e4.f4.d4  | c12  | 
w:   |   |   |   | 
d4c4B4  | A4G4F4  | G4F4E4  | F12  | z20  | efef gae4.a2 .f2.e4z2  | 
w:   |   |   |   |  |  MÜLÂZİME  | 
dede fgd4.f2 .d2.c4z2  | ABAB cdce dfeg fagf edcB  | 
w:   |   | 
A3/2G/Ad cBAB AGAG FEF4z2  | efef gae4.a2 .f2.e4z2  | 
w:   |  MÜLÂZİME  | 
dede fgd4.f2 .d2.c4z2  | ABAB cdce dfeg fagf edcB  | 
w:   |   | 
A3/2G/Ad cBAB AGAG FEF4z2  | |


